X:31
T:Cabin Hunter
Z: id:dc-reel-31
M:C
L:1/8
K:E Dorian
FEED E3B|FEE2 DFAB|FEED E2BA|FDDA BdAd:|!
B3d egfe|dfab afed|Bdge f3e|dBAF FEED|!
B3d egfe|dfab afef|bfef afef|bfaf edBA|]!

